bernoullicharts/2014_lin_x_6_0_mean.svg

<?xml version="1.0" encoding="utf-8" standalone="no"?>
<!DOCTYPE svg PUBLIC "-//W3C//DTD SVG 1.1//EN"
  "http://www.w3.org/Graphics/SVG/1.1/DTD/svg11.dtd">
<!-- Created with matplotlib (https://matplotlib.org/) -->
<svg height="345.6pt" version="1.1" viewBox="0 0 460.8 345.6" width="460.8pt" xmlns="http://www.w3.org/2000/svg" xmlns:xlink="http://www.w3.org/1999/xlink">
 <defs>
  <style type="text/css">
*{stroke-linecap:butt;stroke-linejoin:round;}
  </style>
 </defs>
 <g id="figure_1">
  <g id="patch_1">
   <path d="M 0 345.6 
L 460.8 345.6 
L 460.8 0 
L 0 0 
z
" style="fill:#ffffff;"/>
  </g>
  <g id="axes_1">
   <g id="patch_2">
    <path d="M 57.6 307.584 
L 414.72 307.584 
L 414.72 41.472 
L 57.6 41.472 
z
" style="fill:#ffffff;"/>
   </g>
   <g id="matplotlib.axis_1">
    <g id="xtick_1">
     <g id="line2d_1">
      <defs>
       <path d="M 0 0 
L 0 3.5 
" id="m86f9391253" style="stroke:#000000;stroke-width:0.8;"/>
      </defs>
      <g>
       <use style="stroke:#000000;stroke-width:0.8;" x="73.631807" xlink:href="#m86f9391253" y="307.584"/>
      </g>
     </g>
     <g id="text_1">
      <text style="font-family:DejaVu Sans;font-size:10px;font-style:normal;font-weight:normal;text-anchor:middle;" transform="rotate(-0, 73.631807, 322.182437)" x="73.631807" y="322.182437">0.00</text>
     </g>
    </g>
    <g id="xtick_2">
     <g id="line2d_2">
      <g>
       <use style="stroke:#000000;stroke-width:0.8;" x="113.815844" xlink:href="#m86f9391253" y="307.584"/>
      </g>
     </g>
     <g id="text_2">
      <text style="font-family:DejaVu Sans;font-size:10px;font-style:normal;font-weight:normal;text-anchor:middle;" transform="rotate(-0, 113.815844, 322.182437)" x="113.815844" y="322.182437">0.02</text>
     </g>
    </g>
    <g id="xtick_3">
     <g id="line2d_3">
      <g>
       <use style="stroke:#000000;stroke-width:0.8;" x="153.999881" xlink:href="#m86f9391253" y="307.584"/>
      </g>
     </g>
     <g id="text_3">
      <text style="font-family:DejaVu Sans;font-size:10px;font-style:normal;font-weight:normal;text-anchor:middle;" transform="rotate(-0, 153.999881, 322.182437)" x="153.999881" y="322.182437">0.04</text>
     </g>
    </g>
    <g id="xtick_4">
     <g id="line2d_4">
      <g>
       <use style="stroke:#000000;stroke-width:0.8;" x="194.183918" xlink:href="#m86f9391253" y="307.584"/>
      </g>
     </g>
     <g id="text_4">
      <text style="font-family:DejaVu Sans;font-size:10px;font-style:normal;font-weight:normal;text-anchor:middle;" transform="rotate(-0, 194.183918, 322.182437)" x="194.183918" y="322.182437">0.06</text>
     </g>
    </g>
    <g id="xtick_5">
     <g id="line2d_5">
      <g>
       <use style="stroke:#000000;stroke-width:0.8;" x="234.367954" xlink:href="#m86f9391253" y="307.584"/>
      </g>
     </g>
     <g id="text_5">
      <text style="font-family:DejaVu Sans;font-size:10px;font-style:normal;font-weight:normal;text-anchor:middle;" transform="rotate(-0, 234.367954, 322.182437)" x="234.367954" y="322.182437">0.08</text>
     </g>
    </g>
    <g id="xtick_6">
     <g id="line2d_6">
      <g>
       <use style="stroke:#000000;stroke-width:0.8;" x="274.551991" xlink:href="#m86f9391253" y="307.584"/>
      </g>
     </g>
     <g id="text_6">
      <text style="font-family:DejaVu Sans;font-size:10px;font-style:normal;font-weight:normal;text-anchor:middle;" transform="rotate(-0, 274.551991, 322.182437)" x="274.551991" y="322.182437">0.10</text>
     </g>
    </g>
    <g id="xtick_7">
     <g id="line2d_7">
      <g>
       <use style="stroke:#000000;stroke-width:0.8;" x="314.736028" xlink:href="#m86f9391253" y="307.584"/>
      </g>
     </g>
     <g id="text_7">
      <text style="font-family:DejaVu Sans;font-size:10px;font-style:normal;font-weight:normal;text-anchor:middle;" transform="rotate(-0, 314.736028, 322.182437)" x="314.736028" y="322.182437">0.12</text>
     </g>
    </g>
    <g id="xtick_8">
     <g id="line2d_8">
      <g>
       <use style="stroke:#000000;stroke-width:0.8;" x="354.920065" xlink:href="#m86f9391253" y="307.584"/>
      </g>
     </g>
     <g id="text_8">
      <text style="font-family:DejaVu Sans;font-size:10px;font-style:normal;font-weight:normal;text-anchor:middle;" transform="rotate(-0, 354.920065, 322.182437)" x="354.920065" y="322.182437">0.14</text>
     </g>
    </g>
    <g id="xtick_9">
     <g id="line2d_9">
      <g>
       <use style="stroke:#000000;stroke-width:0.8;" x="395.104102" xlink:href="#m86f9391253" y="307.584"/>
      </g>
     </g>
     <g id="text_9">
      <text style="font-family:DejaVu Sans;font-size:10px;font-style:normal;font-weight:normal;text-anchor:middle;" transform="rotate(-0, 395.104102, 322.182437)" x="395.104102" y="322.182437">0.16</text>
     </g>
    </g>
    <g id="text_10">
     <text style="font-family:DejaVu Sans;font-size:10px;font-style:normal;font-weight:normal;text-anchor:middle;" transform="rotate(-0, 236.16, 335.860562)" x="236.16" y="335.860562">Input Coin's Heads Probability (λ)</text>
    </g>
   </g>
   <g id="matplotlib.axis_2">
    <g id="ytick_1">
     <g id="line2d_10">
      <defs>
       <path d="M 0 0 
L -3.5 0 
" id="m78b0454461" style="stroke:#000000;stroke-width:0.8;"/>
      </defs>
      <g>
       <use style="stroke:#000000;stroke-width:0.8;" x="57.6" xlink:href="#m78b0454461" y="295.488"/>
      </g>
     </g>
     <g id="text_11">
      <text style="font-family:DejaVu Sans;font-size:10px;font-style:normal;font-weight:normal;text-anchor:end;" transform="rotate(-0, 50.6, 299.287219)" x="50.6" y="299.287219">0.0</text>
     </g>
    </g>
    <g id="ytick_2">
     <g id="line2d_11">
      <g>
       <use style="stroke:#000000;stroke-width:0.8;" x="57.6" xlink:href="#m78b0454461" y="245.612885"/>
      </g>
     </g>
     <g id="text_12">
      <text style="font-family:DejaVu Sans;font-size:10px;font-style:normal;font-weight:normal;text-anchor:end;" transform="rotate(-0, 50.6, 249.412104)" x="50.6" y="249.412104">0.2</text>
     </g>
    </g>
    <g id="ytick_3">
     <g id="line2d_12">
      <g>
       <use style="stroke:#000000;stroke-width:0.8;" x="57.6" xlink:href="#m78b0454461" y="195.73777"/>
      </g>
     </g>
     <g id="text_13">
      <text style="font-family:DejaVu Sans;font-size:10px;font-style:normal;font-weight:normal;text-anchor:end;" transform="rotate(-0, 50.6, 199.536989)" x="50.6" y="199.536989">0.4</text>
     </g>
    </g>
    <g id="ytick_4">
     <g id="line2d_13">
      <g>
       <use style="stroke:#000000;stroke-width:0.8;" x="57.6" xlink:href="#m78b0454461" y="145.862656"/>
      </g>
     </g>
     <g id="text_14">
      <text style="font-family:DejaVu Sans;font-size:10px;font-style:normal;font-weight:normal;text-anchor:end;" transform="rotate(-0, 50.6, 149.661874)" x="50.6" y="149.661874">0.6</text>
     </g>
    </g>
    <g id="ytick_5">
     <g id="line2d_14">
      <g>
       <use style="stroke:#000000;stroke-width:0.8;" x="57.6" xlink:href="#m78b0454461" y="95.987541"/>
      </g>
     </g>
     <g id="text_15">
      <text style="font-family:DejaVu Sans;font-size:10px;font-style:normal;font-weight:normal;text-anchor:end;" transform="rotate(-0, 50.6, 99.78676)" x="50.6" y="99.78676">0.8</text>
     </g>
    </g>
    <g id="ytick_6">
     <g id="line2d_15">
      <g>
       <use style="stroke:#000000;stroke-width:0.8;" x="57.6" xlink:href="#m78b0454461" y="46.112426"/>
      </g>
     </g>
     <g id="text_16">
      <text style="font-family:DejaVu Sans;font-size:10px;font-style:normal;font-weight:normal;text-anchor:end;" transform="rotate(-0, 50.6, 49.911645)" x="50.6" y="49.911645">1.0</text>
     </g>
    </g>
    <g id="text_17">
     <text style="font-family:DejaVu Sans;font-size:10px;font-style:normal;font-weight:normal;text-anchor:middle;" transform="rotate(-90, 28.617187, 174.528)" x="28.617187" y="174.528">Simulated Mean / Function Value</text>
    </g>
   </g>
   <g id="line2d_16">
    <path clip-path="url(#p6dc27c9da1)" d="M 73.832727 295.338375 
L 94.123636 280.227726 
L 114.414545 265.117078 
L 134.705455 250.006429 
L 154.996364 234.895781 
L 175.287273 219.785133 
L 195.578182 204.674484 
L 215.869091 189.563836 
L 236.16 174.453187 
L 256.450909 159.342539 
L 276.741818 144.23189 
L 297.032727 129.121242 
L 317.323636 114.010594 
L 337.614545 98.899945 
L 357.905455 83.789297 
L 378.196364 68.678648 
L 398.487273 53.568 
" style="fill:none;stroke:#1f77b4;stroke-linecap:square;stroke-width:1.5;"/>
   </g>
   <g id="line2d_17">
    <path clip-path="url(#p6dc27c9da1)" d="M 73.832727 295.488 
L 94.123636 278.03171 
L 114.414545 266.560433 
M 154.996364 231.149102 
L 175.287273 216.186567 
L 195.578182 200.226531 
L 215.869091 196.236522 
M 256.450909 162.820195 
L 276.741818 147.358909 
M 317.323636 116.436338 
" style="fill:none;stroke:#ff7f0e;stroke-linecap:square;stroke-width:1.5;"/>
   </g>
   <g id="line2d_18">
    <path clip-path="url(#p6dc27c9da1)" d="M 73.832727 295.488 
L 94.123636 283.019221 
L 114.414545 269.054189 
L 134.705455 250.600397 
L 154.996364 228.156595 
L 175.287273 214.690314 
L 195.578182 207.707798 
L 215.869091 190.750259 
L 236.16 177.782729 
L 256.450909 152.845172 
L 276.741818 136.386384 
" style="fill:none;stroke:#2ca02c;stroke-linecap:square;stroke-width:1.5;"/>
   </g>
   <g id="line2d_19">
    <path clip-path="url(#p6dc27c9da1)" d="M 73.832727 294.490498 
L 94.123636 277.532959 
L 114.414545 260.57542 
M 154.996364 235.139111 
L 175.287273 217.18407 
L 195.578182 207.707798 
L 215.869091 186.76025 
L 236.16 167.308955 
" style="fill:none;stroke:#d62728;stroke-linecap:square;stroke-width:1.5;"/>
   </g>
   <g id="line2d_20">
    <path clip-path="url(#p6dc27c9da1)" d="M 73.832727 295.488 
L 94.123636 281.024217 
L 114.414545 269.054189 
L 134.705455 246.111636 
L 154.996364 237.632867 
L 175.287273 217.682821 
L 195.578182 197.234024 
L 215.869091 185.762747 
M 256.450909 155.837679 
L 276.741818 135.887633 
" style="fill:none;stroke:#9467bd;stroke-linecap:square;stroke-width:1.5;"/>
   </g>
   <g id="line2d_21">
    <path clip-path="url(#p6dc27c9da1)" d="M 94.123636 282.52047 
L 114.414545 264.066678 
L 134.705455 250.101646 
L 154.996364 234.141609 
L 175.287273 219.179074 
L 195.578182 211.199056 
L 215.869091 200.226531 
L 236.16 167.807706 
" style="fill:none;stroke:#8c564b;stroke-linecap:square;stroke-width:1.5;"/>
   </g>
   <g id="patch_3">
    <path d="M 57.6 307.584 
L 57.6 41.472 
" style="fill:none;stroke:#000000;stroke-linecap:square;stroke-linejoin:miter;stroke-width:0.8;"/>
   </g>
   <g id="patch_4">
    <path d="M 414.72 307.584 
L 414.72 41.472 
" style="fill:none;stroke:#000000;stroke-linecap:square;stroke-linejoin:miter;stroke-width:0.8;"/>
   </g>
   <g id="patch_5">
    <path d="M 57.6 307.584 
L 414.72 307.584 
" style="fill:none;stroke:#000000;stroke-linecap:square;stroke-linejoin:miter;stroke-width:0.8;"/>
   </g>
   <g id="patch_6">
    <path d="M 57.6 41.472 
L 414.72 41.472 
" style="fill:none;stroke:#000000;stroke-linecap:square;stroke-linejoin:miter;stroke-width:0.8;"/>
   </g>
   <g id="text_18">
    <text style="font-family:DejaVu Sans;font-size:12px;font-style:normal;font-weight:normal;" transform="translate(184.459688 22.034625)">Simulated Means</text>
    <text style="font-family:DejaVu Sans;font-size:12px;font-style:normal;font-weight:normal;" transform="translate(132.609375 35.472)">(Wasserstein Distances in Legend)</text>
   </g>
   <g id="legend_1">
    <g id="patch_7">
     <path d="M 71.387188 137.54075 
L 407.72 137.54075 
Q 409.72 137.54075 409.72 135.54075 
L 409.72 48.472 
Q 409.72 46.472 407.72 46.472 
L 71.387188 46.472 
Q 69.387188 46.472 69.387188 48.472 
L 69.387188 135.54075 
Q 69.387188 137.54075 71.387188 137.54075 
z
" style="fill:#ffffff;opacity:0.8;stroke:#cccccc;stroke-linejoin:miter;"/>
    </g>
    <g id="line2d_22">
     <path d="M 73.387188 54.570438 
L 93.387188 54.570438 
" style="fill:none;stroke:#1f77b4;stroke-linecap:square;stroke-width:1.5;"/>
    </g>
    <g id="line2d_23"/>
    <g id="text_19">
     <text style="font-family:DejaVu Sans;font-size:10px;font-style:normal;font-weight:normal;text-anchor:start;" transform="rotate(-0, 101.387188, 58.070438)" x="101.387188" y="58.070438">x*6.0</text>
    </g>
    <g id="line2d_24">
     <path d="M 73.387188 69.248563 
L 93.387188 69.248563 
" style="fill:none;stroke:#ff7f0e;stroke-linecap:square;stroke-width:1.5;"/>
    </g>
    <g id="line2d_25"/>
    <g id="text_20">
     <text style="font-family:DejaVu Sans;font-size:10px;font-style:normal;font-weight:normal;text-anchor:start;" transform="rotate(-0, 101.387188, 72.748563)" x="101.387188" y="72.748563">Simul. Mean of 2014 Lin. x*6.0 (WD=0.012545)</text>
    </g>
    <g id="line2d_26">
     <path d="M 73.387188 83.926688 
L 93.387188 83.926688 
" style="fill:none;stroke:#2ca02c;stroke-linecap:square;stroke-width:1.5;"/>
    </g>
    <g id="line2d_27"/>
    <g id="text_21">
     <text style="font-family:DejaVu Sans;font-size:10px;font-style:normal;font-weight:normal;text-anchor:start;" transform="rotate(-0, 101.387188, 87.426688)" x="101.387188" y="87.426688">Simul. Mean of 2016 Lin. x*6.0 (WD=0.015019)</text>
    </g>
    <g id="line2d_28">
     <path d="M 73.387188 98.604813 
L 93.387188 98.604813 
" style="fill:none;stroke:#d62728;stroke-linecap:square;stroke-width:1.5;"/>
    </g>
    <g id="line2d_29"/>
    <g id="text_22">
     <text style="font-family:DejaVu Sans;font-size:10px;font-style:normal;font-weight:normal;text-anchor:start;" transform="rotate(-0, 101.387188, 102.104813)" x="101.387188" y="102.104813">Simul. Mean of Low-Mean Lin. x*6.0 (WD=0.011985)</text>
    </g>
    <g id="line2d_30">
     <path d="M 73.387188 113.282938 
L 93.387188 113.282938 
" style="fill:none;stroke:#9467bd;stroke-linecap:square;stroke-width:1.5;"/>
    </g>
    <g id="line2d_31"/>
    <g id="text_23">
     <text style="font-family:DejaVu Sans;font-size:10px;font-style:normal;font-weight:normal;text-anchor:start;" transform="rotate(-0, 101.387188, 116.782938)" x="101.387188" y="116.782938">Simul. Mean of 2019x*6.0 (WD=0.014720)</text>
    </g>
    <g id="line2d_32">
     <path d="M 73.387188 127.961063 
L 93.387188 127.961063 
" style="fill:none;stroke:#8c564b;stroke-linecap:square;stroke-width:1.5;"/>
    </g>
    <g id="line2d_33"/>
    <g id="text_24">
     <text style="font-family:DejaVu Sans;font-size:10px;font-style:normal;font-weight:normal;text-anchor:start;" transform="rotate(-0, 101.387188, 131.461063)" x="101.387188" y="131.461063">Simul. Mean of Low-Mean M=0.49999 x*6.0 (WD=0.014352)</text>
    </g>
   </g>
  </g>
 </g>
 <defs>
  <clipPath id="p6dc27c9da1">
   <rect height="266.112" width="357.12" x="57.6" y="41.472"/>
  </clipPath>
 </defs>
</svg>

<svg height="460.8" viewBox="0 0 460.8 345.6" width="614.4" xmlns="http://www.w3.org/2000/svg" xmlns:xlink="http://www.w3.org/1999/xlink"><defs><style>*{stroke-linecap:butt;stroke-linejoin:round}</style></defs><g id="figure_1"><path d="M0 345.6h460.8V0H0z" fill="#fff" id="patch_1"/><g id="axes_1"><path d="M57.6 307.584h357.12V41.472H57.6z" fill="#fff" id="patch_2"/><g id="matplotlib.axis_1"><g id="xtick_1"><g id="line2d_1"><defs><path d="M0 0v3.5" id="m86f9391253" stroke="#000" stroke-width=".8"/></defs><use x="73.632" xlink:href="#m86f9391253" y="307.584" stroke="#000" stroke-width=".8"/></g><text x="73.632" y="322.182" font-family="DejaVu Sans" font-size="10" font-weight="400" text-anchor="middle" id="text_1">0.00</text></g><g id="xtick_2"><use x="113.816" xlink:href="#m86f9391253" y="307.584" stroke="#000" stroke-width=".8" id="line2d_2"/><text x="113.816" y="322.182" font-family="DejaVu Sans" font-size="10" font-weight="400" text-anchor="middle" id="text_2">0.02</text></g><g id="xtick_3"><use x="154" xlink:href="#m86f9391253" y="307.584" stroke="#000" stroke-width=".8" id="line2d_3"/><text x="154" y="322.182" font-family="DejaVu Sans" font-size="10" font-weight="400" text-anchor="middle" id="text_3">0.04</text></g><g id="xtick_4"><use x="194.184" xlink:href="#m86f9391253" y="307.584" stroke="#000" stroke-width=".8" id="line2d_4"/><text x="194.184" y="322.182" font-family="DejaVu Sans" font-size="10" font-weight="400" text-anchor="middle" id="text_4">0.06</text></g><g id="xtick_5"><use x="234.368" xlink:href="#m86f9391253" y="307.584" stroke="#000" stroke-width=".8" id="line2d_5"/><text x="234.368" y="322.182" font-family="DejaVu Sans" font-size="10" font-weight="400" text-anchor="middle" id="text_5">0.08</text></g><g id="xtick_6"><use x="274.552" xlink:href="#m86f9391253" y="307.584" stroke="#000" stroke-width=".8" id="line2d_6"/><text x="274.552" y="322.182" font-family="DejaVu Sans" font-size="10" font-weight="400" text-anchor="middle" id="text_6">0.10</text></g><g id="xtick_7"><use x="314.736" xlink:href="#m86f9391253" y="307.584" stroke="#000" stroke-width=".8" id="line2d_7"/><text x="314.736" y="322.182" font-family="DejaVu Sans" font-size="10" font-weight="400" text-anchor="middle" id="text_7">0.12</text></g><g id="xtick_8"><use x="354.92" xlink:href="#m86f9391253" y="307.584" stroke="#000" stroke-width=".8" id="line2d_8"/><text x="354.92" y="322.182" font-family="DejaVu Sans" font-size="10" font-weight="400" text-anchor="middle" id="text_8">0.14</text></g><g id="xtick_9"><use x="395.104" xlink:href="#m86f9391253" y="307.584" stroke="#000" stroke-width=".8" id="line2d_9"/><text x="395.104" y="322.182" font-family="DejaVu Sans" font-size="10" font-weight="400" text-anchor="middle" id="text_9">0.16</text></g><text x="236.16" y="335.861" font-family="DejaVu Sans" font-size="10" font-weight="400" text-anchor="middle" id="text_10">Input Coin&apos;s Heads Probability (λ)</text></g><g id="matplotlib.axis_2"><g id="ytick_1"><g id="line2d_10"><defs><path d="M0 0h-3.5" id="m78b0454461" stroke="#000" stroke-width=".8"/></defs><use x="57.6" xlink:href="#m78b0454461" y="295.488" stroke="#000" stroke-width=".8"/></g><text x="50.6" y="299.287" font-family="DejaVu Sans" font-size="10" font-weight="400" text-anchor="end" id="text_11">0.0</text></g><g id="ytick_2"><use x="57.6" xlink:href="#m78b0454461" y="245.613" stroke="#000" stroke-width=".8" id="line2d_11"/><text x="50.6" y="249.412" font-family="DejaVu Sans" font-size="10" font-weight="400" text-anchor="end" id="text_12">0.2</text></g><g id="ytick_3"><use x="57.6" xlink:href="#m78b0454461" y="195.738" stroke="#000" stroke-width=".8" id="line2d_12"/><text x="50.6" y="199.537" font-family="DejaVu Sans" font-size="10" font-weight="400" text-anchor="end" id="text_13">0.4</text></g><g id="ytick_4"><use x="57.6" xlink:href="#m78b0454461" y="145.863" stroke="#000" stroke-width=".8" id="line2d_13"/><text x="50.6" y="149.662" font-family="DejaVu Sans" font-size="10" font-weight="400" text-anchor="end" id="text_14">0.6</text></g><g id="ytick_5"><use x="57.6" xlink:href="#m78b0454461" y="95.988" stroke="#000" stroke-width=".8" id="line2d_14"/><text x="50.6" y="99.787" font-family="DejaVu Sans" font-size="10" font-weight="400" text-anchor="end" id="text_15">0.8</text></g><g id="ytick_6"><use x="57.6" xlink:href="#m78b0454461" y="46.112" stroke="#000" stroke-width=".8" id="line2d_15"/><text x="50.6" y="49.912" font-family="DejaVu Sans" font-size="10" font-weight="400" text-anchor="end" id="text_16">1.0</text></g><text transform="rotate(-90 28.617 174.528)" x="28.617" y="174.528" font-family="DejaVu Sans" font-size="10" font-weight="400" text-anchor="middle" id="text_17">Simulated Mean / Function Value</text></g><path clip-path="url(#p6dc27c9da1)" d="M73.833 295.338l20.29-15.11 20.292-15.11 20.29-15.112 20.291-15.11 20.291-15.11 20.291-15.112 20.291-15.11 20.291-15.11 20.29-15.111 20.292-15.111 20.29-15.11 20.292-15.111 20.29-15.111 20.291-15.11 20.291-15.111 20.291-15.111" fill="none" stroke="#1f77b4" stroke-linecap="square" stroke-width="1.5" id="line2d_16"/><path clip-path="url(#p6dc27c9da1)" d="M73.833 295.488l20.29-17.456 20.292-11.472m40.581-35.41l20.291-14.963 20.291-15.96 20.291-3.99m40.582-33.417l20.29-15.461m40.583-30.923" fill="none" stroke="#ff7f0e" stroke-linecap="square" stroke-width="1.5" id="line2d_17"/><path clip-path="url(#p6dc27c9da1)" d="M73.833 295.488l20.29-12.469 20.292-13.965 20.29-18.454 20.291-22.443 20.291-13.467 20.291-6.982 20.291-16.958 20.291-12.967 20.29-24.938 20.292-16.459" fill="none" stroke="#2ca02c" stroke-linecap="square" stroke-width="1.5" id="line2d_18"/><path clip-path="url(#p6dc27c9da1)" d="M73.833 294.49l20.29-16.957 20.292-16.958m40.581-25.436l20.291-17.955 20.291-9.476 20.291-20.948 20.291-19.451" fill="none" stroke="#d62728" stroke-linecap="square" stroke-width="1.5" id="line2d_19"/><path clip-path="url(#p6dc27c9da1)" d="M73.833 295.488l20.29-14.464 20.292-11.97 20.29-22.942 20.291-8.48 20.291-19.95 20.291-20.448 20.291-11.471m40.582-29.925l20.29-19.95" fill="none" stroke="#9467bd" stroke-linecap="square" stroke-width="1.5" id="line2d_20"/><path clip-path="url(#p6dc27c9da1)" d="M94.124 282.52l20.29-18.453 20.291-13.965 20.291-15.96 20.291-14.963 20.291-7.98 20.291-10.972 20.291-32.42" fill="none" stroke="#8c564b" stroke-linecap="square" stroke-width="1.5" id="line2d_21"/><path d="M57.6 307.584V41.472" fill="none" stroke="#000" stroke-linecap="square" stroke-width=".8" id="patch_3"/><path d="M414.72 307.584V41.472" fill="none" stroke="#000" stroke-linecap="square" stroke-width=".8" id="patch_4"/><path d="M57.6 307.584h357.12" fill="none" stroke="#000" stroke-linecap="square" stroke-width=".8" id="patch_5"/><path d="M57.6 41.472h357.12" fill="none" stroke="#000" stroke-linecap="square" stroke-width=".8" id="patch_6"/><g id="text_18" font-family="DejaVu Sans" font-size="12" font-weight="400"><text transform="translate(184.46 22.035)">Simulated Means</text><text transform="translate(132.61 35.472)">(Wasserstein Distances in Legend)</text></g><g id="legend_1"><path d="M71.387 137.54H407.72q2 0 2-2V48.473q0-2-2-2H71.387q-2 0-2 2v87.069q0 2 2 2z" fill="#fff" opacity=".8" stroke="#ccc" id="patch_7"/><path d="M73.387 54.57h20" fill="none" stroke="#1f77b4" stroke-linecap="square" stroke-width="1.5" id="line2d_22"/><text x="101.387" y="58.07" font-family="DejaVu Sans" font-size="10" font-weight="400" id="text_19">x*6.0</text><path d="M73.387 69.249h20" fill="none" stroke="#ff7f0e" stroke-linecap="square" stroke-width="1.5" id="line2d_24"/><text x="101.387" y="72.749" font-family="DejaVu Sans" font-size="10" font-weight="400" id="text_20">Simul. Mean of 2014 Lin. x*6.0 (WD=0.012545)</text><path d="M73.387 83.927h20" fill="none" stroke="#2ca02c" stroke-linecap="square" stroke-width="1.5" id="line2d_26"/><text x="101.387" y="87.427" font-family="DejaVu Sans" font-size="10" font-weight="400" id="text_21">Simul. Mean of 2016 Lin. x*6.0 (WD=0.015019)</text><path d="M73.387 98.605h20" fill="none" stroke="#d62728" stroke-linecap="square" stroke-width="1.5" id="line2d_28"/><text x="101.387" y="102.105" font-family="DejaVu Sans" font-size="10" font-weight="400" id="text_22">Simul. Mean of Low-Mean Lin. x*6.0 (WD=0.011985)</text><path d="M73.387 113.283h20" fill="none" stroke="#9467bd" stroke-linecap="square" stroke-width="1.5" id="line2d_30"/><text x="101.387" y="116.783" font-family="DejaVu Sans" font-size="10" font-weight="400" id="text_23">Simul. Mean of 2019x*6.0 (WD=0.014720)</text><path d="M73.387 127.961h20" fill="none" stroke="#8c564b" stroke-linecap="square" stroke-width="1.5" id="line2d_32"/><text x="101.387" y="131.461" font-family="DejaVu Sans" font-size="10" font-weight="400" id="text_24">Simul. Mean of Low-Mean M=0.49999 x*6.0 (WD=0.014352)</text></g></g></g><defs><clipPath id="p6dc27c9da1"><path d="M57.6 41.472h357.12v266.112H57.6z"/></clipPath></defs></svg>
